svgs/duotone/circle-video.svg

<svg xmlns="http://www.w3.org/2000/svg" viewBox="0 0 512 512"><!--! Font Awesome Pro 6.6.0 by @fontawesome - https://fontawesome.com License - https://fontawesome.com/license (Commercial License) Copyright 2024 Fonticons, Inc. --><path class="fa-secondary" style="fill:var(--fa-secondary-color,inherit);opacity:var(--fa-secondary-opacity,.4);" d="M0 256a256 256 0 1 0 512 0A256 256 0 1 0 0 256zm128-64c0-17.7 14.3-32 32-32l128 0c17.7 0 32 14.3 32 32l0 128c0 17.7-14.3 32-32 32l-128 0c-17.7 0-32-14.3-32-32l0-128zm224 32l44.9-29.9c2-1.3 4.4-2.1 6.8-2.1c6.8 0 12.3 5.5 12.3 12.3l0 103.4c0 6.8-5.5 12.3-12.3 12.3c-2.4 0-4.8-.7-6.8-2.1L352 288l0-64z"/><path class="fa-primary" style="fill:var(--fa-primary-color,inherit);opacity:var(--fa-primary-opacity,1);" d="M160 160c-17.7 0-32 14.3-32 32l0 128c0 17.7 14.3 32 32 32l128 0c17.7 0 32-14.3 32-32l0-128c0-17.7-14.3-32-32-32l-128 0zM352 288l44.9 29.9c2 1.3 4.4 2.1 6.8 2.1c6.8 0 12.3-5.5 12.3-12.3l0-103.4c0-6.8-5.5-12.3-12.3-12.3c-2.4 0-4.8 .7-6.8 2.1L352 224l0 64z"/></svg>

<svg xmlns="http://www.w3.org/2000/svg" viewBox="0 0 512 512"><!--! Font Awesome Pro 6.4.2 by @fontawesome - https://fontawesome.com License - https://fontawesome.com/license (Commercial License) Copyright 2023 Fonticons, Inc. --><path class="fa-primary" style="fill:var(--fa-primary-color,inherit);opacity:var(--fa-primary-opacity,1);" d="M160 160c-17.7 0-32 14.3-32 32V320c0 17.7 14.3 32 32 32H288c17.7 0 32-14.3 32-32V192c0-17.7-14.3-32-32-32H160zM352 288l44.9 29.9c2 1.3 4.4 2.1 6.8 2.1c6.8 0 12.3-5.5 12.3-12.3V204.3c0-6.8-5.5-12.3-12.3-12.3c-2.4 0-4.8 .7-6.8 2.1L352 224v64z"/><path class="fa-secondary" style="fill:var(--fa-secondary-color,inherit);opacity:var(--fa-secondary-opacity,.4);" d="M256 512A256 256 0 1 0 256 0a256 256 0 1 0 0 512zM128 192c0-17.7 14.3-32 32-32H288c17.7 0 32 14.3 32 32V320c0 17.7-14.3 32-32 32H160c-17.7 0-32-14.3-32-32V192zM396.9 317.9L352 288V224l44.9-29.9c2-1.3 4.4-2.1 6.8-2.1c6.8 0 12.3 5.5 12.3 12.3V307.7c0 6.8-5.5 12.3-12.3 12.3c-2.4 0-4.8-.7-6.8-2.1z"/></svg>
